;FLAVOR:Marlin
;TIME:2542
;Filament used: 2.17912m
;Layer height: 0.2
;MINX:74
;MINY:74
;MINZ:0.2
;MAXX:146
;MAXY:146
;MAXZ:5
;Generated with Cura_SteamEngine 5.4.0
M140 S50
M105
M190 S50
M104 S200
M105
M109 S200
M82 ;absolute extrusion mode
M201 X500.00 Y500.00 Z100.00 E5000.00 ;Setup machine max acceleration
M203 X500.00 Y500.00 Z10.00 E50.00 ;Setup machine max feedrate
M204 P500.00 R1000.00 T500.00 ;Setup Print/Retract/Travel acceleration
M205 X8.00 Y8.00 Z0.40 E5.00 ;Setup Jerk
M220 S100 ;Reset Feedrate
M221 S100 ;Reset Flowrate

G28 ;Home

G92 E0 ;Reset Extruder
G1 Z2.0 F3000 ;Move Z Axis up
G1 X10.1 Y20 Z0.28 F5000.0 ;Move to start position
G1 X10.1 Y200.0 Z0.28 F1500.0 E15 ;Draw the first line
G1 X10.4 Y200.0 Z0.28 F5000.0 ;Move to side a little
G1 X10.4 Y20 Z0.28 F1500.0 E30 ;Draw the second line
G92 E0 ;Reset Extruder
G1 Z2.0 F3000 ;Move Z Axis up

G92 E0
G92 E0
G1 F2700 E-5
;LAYER_COUNT:25
;LAYER:0
M107
G0 F6000 X77.469 Y77.001 Z0.2
;TYPE:SKIRT
G1 F2700 E0
G1 F1200 X78.179 Y76.387 E0.03122
G1 X78.998 Y75.797 E0.06479
G1 X79.837 Y75.301 E0.09721
G1 X80.651 Y74.91 E0.12724
G1 X81.628 Y74.542 E0.16197
G1 X82.532 Y74.292 E0.19316
G1 X83.534 Y74.109 E0.22704
G1 X84.705 Y74.013 E0.26612
G1 X85.312 Y74 E0.28631
G1 X128.997 Y74 E1.73928
G1 X129.88 Y74.013 E1.76865
G1 X130.852 Y74.072 E1.80104
G1 X131.815 Y74.218 E1.83344
G1 X132.762 Y74.449 E1.86586
G1 X133.683 Y74.762 E1.89821
G1 X134.575 Y75.156 E1.93065
G1 X135.428 Y75.627 E1.96305
G1 X136.246 Y76.18 E1.9959
G1 X137.257 Y77.028 E2.03978
G1 X137.782 Y77.532 E2.06399
G1 X142.305 Y82.054 E2.27671
G1 X142.906 Y82.673 E2.30541
G1 X143.506 Y83.348 E2.33545
G1 X144.129 Y84.188 E2.37023
G1 X144.617 Y84.989 E2.40143
G1 X145.065 Y85.894 E2.43501
G1 X145.415 Y86.803 E2.46741
G1 X145.684 Y87.738 E2.49977
G1 X145.871 Y88.694 E2.53217
G1 X145.971 Y89.645 E2.56398
G1 X145.999 Y90.693 E2.59884
G1 X145.999 Y101.062 E2.94372
G1 X145.987 Y101.808 E2.96853
G1 X145.95 Y102.55 E2.99324
G1 X145.714 Y105.289 E3.08468
G1 X145.575 Y107.775 E3.16749
G1 X145.503 Y110.318 E3.25211
G1 X145.503 Y112.829 E3.33563
G1 X145.575 Y115.341 E3.41921
G1 X145.717 Y117.833 E3.50223
G1 X145.95 Y120.679 E3.5972
G1 X145.985 Y121.273 E3.61699
G1 X146 Y121.93 E3.63885
G1 X145.999 Y132.55 E3.99207
G1 X145.987 Y133.287 E4.01659
G1 X145.928 Y134.259 E4.04898
G1 X145.782 Y135.222 E4.08137
G1 X145.551 Y136.169 E4.11379
G1 X145.238 Y137.09 E4.14615
G1 X144.844 Y137.982 E4.17858
G1 X144.373 Y138.835 E4.21099
G1 X143.847 Y139.616 E4.24231
G1 X143.085 Y140.541 E4.28217
G1 X142.639 Y141.012 E4.30374
G1 X141.379 Y142.278 E4.36315
G1 X140.742 Y142.897 E4.39269
G1 X139.997 Y143.555 E4.42575
G1 X139.214 Y144.13 E4.45806
G1 X138.413 Y144.618 E4.48926
G1 X137.506 Y145.066 E4.52291
G1 X136.599 Y145.416 E4.55524
G1 X135.661 Y145.687 E4.58771
G1 X134.69 Y145.873 E4.6206
G1 X133.346 Y145.986 E4.66546
G1 X132.538 Y146 E4.69233
G1 X85.549 Y145.999 E6.2552
G1 X84.816 Y145.987 E6.27958
G1 X83.844 Y145.928 E6.31197
G1 X82.881 Y145.782 E6.34436
G1 X81.934 Y145.551 E6.37678
G1 X81.046 Y145.251 E6.40796
G1 X80.154 Y144.861 E6.44034
G1 X79.271 Y144.374 E6.47388
G1 X78.52 Y143.872 E6.50392
G1 X77.705 Y143.214 E6.53876
G1 X77.007 Y142.536 E6.57113
G1 X76.371 Y141.799 E6.6035
G1 X75.801 Y141.009 E6.6359
G1 X75.339 Y140.233 E6.66594
G1 X74.885 Y139.291 E6.70072
G1 X74.556 Y138.413 E6.73191
G1 X74.287 Y137.44 E6.76548
G1 X74.11 Y136.473 E6.79818
G1 X74.014 Y135.308 E6.83706
G1 X74 Y134.658 E6.85868
G1 X74.001 Y85.509 E8.49339
G1 X74.013 Y84.808 E8.51671
G1 X74.073 Y83.835 E8.54913
G1 X74.22 Y82.874 E8.58146
G1 X74.451 Y81.926 E8.61392
G1 X74.753 Y81.037 E8.64514
G1 X75.16 Y80.115 E8.67867
G1 X75.631 Y79.263 E8.71104
G1 X76.176 Y78.454 E8.74349
G1 X76.767 Y77.726 E8.77468
G1 X77.469 Y77.001 E8.80824
G0 F6000 X77.731 Y77.304
G1 F1200 X78.441 Y76.69 E8.83946
G1 X79.202 Y76.141 E8.87067
G1 X80.01 Y75.662 E8.90191
G1 X80.824 Y75.271 E8.93195
G1 X81.735 Y74.928 E8.96432
G1 X82.639 Y74.678 E8.99552
G1 X83.567 Y74.508 E9.0269
G1 X84.714 Y74.413 E9.06518
G1 X85.321 Y74.4 E9.08537
G1 X128.991 Y74.4 E10.53784
G1 X129.856 Y74.412 E10.56662
G1 X130.793 Y74.468 E10.59784
G1 X131.721 Y74.607 E10.62905
G1 X132.634 Y74.828 E10.66029
G1 X133.522 Y75.128 E10.69146
G1 X134.382 Y75.506 E10.72271
G1 X135.205 Y75.959 E10.75396
G1 X135.989 Y76.487 E10.78539
G1 X136.98 Y77.317 E10.82839
G1 X137.499 Y77.815 E10.85231
G1 X142.018 Y82.333 E11.06485
G1 X142.607 Y82.939 E11.09295
G1 X143.207 Y83.614 E11.12299
G1 X143.787 Y84.396 E11.15538
G1 X144.275 Y85.197 E11.18657
G1 X144.692 Y86.039 E11.21782
G1 X145.031 Y86.914 E11.24903
G1 X145.292 Y87.815 E11.28023
G1 X145.473 Y88.736 E11.31145
G1 X145.571 Y89.661 E11.34239
G1 X145.59 Y90.141 E11.35837
G1 X145.599 Y90.699 E11.37693
G1 X145.599 Y101.055 E11.72137
G1 X145.587 Y101.788 E11.74575
G1 X145.551 Y102.516 E11.77
G1 X145.316 Y105.255 E11.86143
G1 X145.175 Y107.764 E11.94501
G1 X145.103 Y110.307 E12.02963
G1 X145.103 Y112.829 E12.11351
G1 X145.175 Y115.352 E12.19746
G1 X145.318 Y117.867 E12.28124
G1 X145.441 Y119.328 E12.33001
G1 X145.447 Y119.482 E12.33513
G1 X145.551 Y120.702 E12.37586
G1 X145.585 Y121.282 E12.39518
G1 X145.6 Y121.93 E12.41674
G1 X145.599 Y132.544 E12.76976
G1 X145.588 Y133.263 E12.79368
G1 X145.532 Y134.2 E12.8249
G1 X145.393 Y135.128 E12.85611
G1 X145.172 Y136.041 E12.88735
G1 X144.872 Y136.929 E12.91853
G1 X144.494 Y137.789 E12.94977
G1 X144.041 Y138.612 E12.98102
G1 X143.538 Y139.362 E13.01105
G1 X142.776 Y140.287 E13.05091
G1 X142.356 Y140.73 E13.07122
G1 X141.1 Y141.991 E13.13041
G1 X140.463 Y142.61 E13.15996
G1 X139.76 Y143.233 E13.1912
G1 X139.005 Y143.789 E13.22238
G1 X138.235 Y144.26 E13.25241
G1 X137.361 Y144.693 E13.28485
G1 X136.487 Y145.032 E13.31603
G1 X135.585 Y145.294 E13.34727
G1 X134.656 Y145.474 E13.37874
G1 X133.312 Y145.587 E13.4236
G1 X132.538 Y145.6 E13.44935
G1 X85.555 Y145.599 E15.01201
G1 X84.84 Y145.588 E15.03579
G1 X83.903 Y145.532 E15.06701
G1 X82.975 Y145.393 E15.09822
G1 X82.062 Y145.172 E15.12947
G1 X81.206 Y144.884 E15.1595
G1 X80.314 Y144.494 E15.19188
G1 X79.493 Y144.041 E15.22307
G1 X78.742 Y143.539 E15.25312
G1 X77.983 Y142.927 E15.28554
G1 X77.309 Y142.274 E15.31676
G1 X76.695 Y141.565 E15.34795
G1 X76.145 Y140.804 E15.37918
G1 X75.683 Y140.028 E15.40922
G1 X75.26 Y139.151 E15.4416
G1 X74.931 Y138.273 E15.47279
G1 X74.68 Y137.368 E15.50403
G1 X74.509 Y136.44 E15.53541
G1 X74.413 Y135.275 E15.57429
G1 X74.4 Y134.658 E15.59482
G1 X74.401 Y85.515 E17.22932
G1 X74.412 Y84.832 E17.25204
G1 X74.469 Y83.895 E17.28326
G1 X74.609 Y82.968 E17.31444
G1 X74.83 Y82.055 E17.34569
G1 X75.132 Y81.166 E17.37692
G1 X75.51 Y80.308 E17.4081
G1 X75.963 Y79.486 E17.43932
G1 X76.487 Y78.706 E17.47057
G1 X77.078 Y77.978 E17.50176
G1 X77.731 Y77.304 E17.53297
G0 F6000 X77.993 Y77.606
G1 F1200 X78.675 Y77.014 E17.56301
G1 X79.407 Y76.485 E17.59305
G1 X80.183 Y76.023 E17.62308
G1 X80.997 Y75.632 E17.65312
G1 X81.842 Y75.313 E17.68316
G1 X82.712 Y75.071 E17.71319
G1 X83.6 Y74.907 E17.74323
G1 X84.723 Y74.813 E17.78071
G1 X85.33 Y74.8 E17.8009
G1 X128.986 Y74.8 E19.25291
G1 X129.833 Y74.811 E19.28108
G1 X130.735 Y74.864 E19.31113
G1 X131.628 Y74.996 E19.34116
G1 X132.506 Y75.207 E19.37119
G1 X133.362 Y75.495 E19.40123
G1 X134.19 Y75.857 E19.43129
G1 X134.982 Y76.291 E19.46133
G1 X135.732 Y76.794 E19.49136
G1 X136.723 Y77.624 E19.53436
G1 X137.216 Y78.098 E19.5571
G1 X141.731 Y82.612 E19.76945
G1 X142.308 Y83.205 E19.79697
G1 X142.908 Y83.88 E19.82701
G1 X143.446 Y84.605 E19.85704
G1 X143.917 Y85.375 E19.88706
G1 X144.319 Y86.184 E19.9171
G1 X144.647 Y87.026 E19.94716
G1 X144.9 Y87.893 E19.9772
G1 X145.075 Y88.779 E20.00723
G1 X145.171 Y89.677 E20.03727
G1 X145.19 Y90.147 E20.05292
G1 X145.199 Y90.705 E20.07148
G1 X145.199 Y101.049 E20.41552
G1 X145.188 Y101.768 E20.43944
G1 X145.152 Y102.482 E20.46322
G1 X144.918 Y105.221 E20.55465
G1 X144.775 Y107.753 E20.639
G1 X144.703 Y110.296 E20.72361
G1 X144.703 Y112.829 E20.80786
G1 X144.775 Y115.363 E20.89217
G1 X144.919 Y117.901 E20.97672
G1 X145.041 Y119.344 E21.02489
G1 X145.048 Y119.516 E21.03062
G1 X145.152 Y120.725 E21.07098
G1 X145.185 Y121.291 E21.08983
G1 X145.2 Y121.93 E21.11109
G1 X145.199 Y132.538 E21.46392
G1 X145.189 Y133.24 E21.48727
G1 X145.136 Y134.142 E21.51732
G1 X145.004 Y135.035 E21.54734
G1 X144.793 Y135.913 E21.57738
G1 X144.505 Y136.769 E21.60742
G1 X144.143 Y137.597 E21.63747
G1 X143.709 Y138.389 E21.66751
G1 X143.206 Y139.139 E21.69755
G1 X142.468 Y140.032 E21.73608
G1 X142.073 Y140.448 E21.75516
G1 X140.821 Y141.704 E21.81414
G1 X140.197 Y142.311 E21.8431
G1 X139.522 Y142.911 E21.87313
G1 X138.796 Y143.448 E21.90317
G1 X138.026 Y143.919 E21.93319
G1 X137.216 Y144.32 E21.96325
G1 X136.375 Y144.648 E21.99327
G1 X135.508 Y144.901 E22.02331
G1 X134.622 Y145.075 E22.05335
G1 X133.278 Y145.188 E22.0982
G1 X132.538 Y145.2 E22.12282
G1 X85.561 Y145.199 E23.68528
G1 X84.863 Y145.189 E23.7085
G1 X83.961 Y145.136 E23.73855
G1 X83.068 Y145.004 E23.76858
G1 X82.19 Y144.793 E23.79861
G1 X81.334 Y144.505 E23.82865
G1 X80.507 Y144.143 E23.85867
G1 X79.715 Y143.708 E23.88873
G1 X78.964 Y143.206 E23.91877
G1 X78.261 Y142.639 E23.94881
G1 X77.611 Y142.012 E23.97885
G1 X77.019 Y141.33 E24.00889
G1 X76.489 Y140.599 E24.03892
G1 X76.027 Y139.823 E24.06896
G1 X75.634 Y139.01 E24.09899
G1 X75.316 Y138.165 E24.12902
G1 X75.073 Y137.295 E24.15906
G1 X74.908 Y136.407 E24.1891
G1 X74.813 Y135.266 E24.22719
G1 X74.8 Y134.658 E24.24741
G1 X74.801 Y85.521 E25.88172
G1 X74.811 Y84.856 E25.90384
G1 X74.865 Y83.954 E25.93389
G1 X74.998 Y83.061 E25.96392
G1 X75.209 Y82.183 E25.99395
G1 X75.498 Y81.327 E26.024
G1 X75.861 Y80.5 E26.05404
G1 X76.295 Y79.709 E26.08405
G1 X76.798 Y78.958 E26.11411
G1 X77.366 Y78.256 E26.14415
G1 X77.993 Y77.606 E26.17419
G1 F2700 E21.17419
;MESH:prava.stl
G0 F6000 X92.027 Y108.98
G0 X93.795 Y114.711
;TYPE:WALL-INNER
G1 F2700 E26.17419
G1 F1200 X92.387 Y114.266 E26.2233
G1 X91.352 Y113.246 E26.27163
G1 X90.917 Y111.909 E26.31839
G1 X90.916 Y111.708 E26.32508
G1 X91.135 Y110.368 E26.37024
G1 X91.993 Y109.236 E26.41748
G1 X92.122 Y109.133 E26.42297
G1 X93.351 Y108.57 E26.46793
G1 X93.557 Y108.545 E26.47484
G1 X94.764 Y108.609 E26.51504
G1 X95.005 Y108.674 E26.52334
G1 X96.12 Y109.346 E26.56664
G1 X96.245 Y109.468 E26.57245
G1 X96.936 Y110.616 E26.61702
G1 X96.98 Y110.756 E26.6219
G1 X97.056 Y112.033 E26.66444
G1 X97.028 Y112.252 E26.67179
G1 X96.468 Y113.47 E26.71638
G1 X96.374 Y113.596 E26.7216
G1 X95.313 Y114.405 E26.76598
G1 X95.14 Y114.478 E26.77223
G1 X93.795 Y114.711 E26.81763
G1 F2700 E21.81763
G0 F6000 X92.408 Y114.468
G0 X85.801 Y114.468
G0 X85.601 Y134.399
G1 F2700 E26.81763
G1 F1200 X128.432 Y134.4 E28.24219
G1 F971.7 X129.315 Y134.305 E28.27867
G1 F833.3 X129.654 Y134.318 E28.29492
G1 F837.7 X130.67 Y134.309 E28.34333
G1 F917.8 X130.926 Y134.367 E28.35474
G1 F1111.1 X132.056 Y134.399 E28.39535
G1 F1200 X132.85 Y134.399 E28.42176
G1 X134.4 Y132.85 E28.49464
G1 X134.4 Y122.2 E28.84886
G1 X109.925 Y122.2 E29.66291
G1 X109.662 Y122.097 E29.6723
G1 X109.442 Y121.824 E29.68396
G1 X109.401 Y121.678 E29.68901
G1 X109.403 Y101.537 E30.3589
G1 X109.539 Y101.214 E30.37055
G1 X109.688 Y101.087 E30.37707
G1 X109.944 Y101.002 E30.38604
G1 X134.4 Y101 E31.19945
G1 X134.4 Y90.557 E31.54678
G1 X129.443 Y85.601 E31.77992
G1 X85.601 Y85.601 E33.23811
G1 X85.601 Y134.399 E34.86114
G1 F2700 E29.86114
G0 F6000 X85.701 Y134.13
G0 X128.436 Y134.239
G0 X130.614 Y133.934
G0 X130.62 Y133.731
G1 F2700 E34.86114
G1 F821.9 X129.467 Y133.758 E34.91715
G1 F888.9 X128.47 Y133.303 E34.96635
G1 F1073.8 X127.806 Y132.798 E34.99736
G1 F1200 X127.322 Y132.156 E35.0241
G1 X127.223 Y131.953 E35.03161
G1 X126.883 Y130.7 E35.07479
G1 X127.166 Y129.344 E35.12087
G1 X127.261 Y129.173 E35.12737
G1 X128.069 Y128.153 E35.17065
G1 X129.365 Y127.551 E35.21818
G1 X130.5 Y127.551 E35.25593
G1 X130.702 Y127.585 E35.26275
G1 X131.479 Y127.862 E35.29018
G1 X132.198 Y128.403 E35.32011
G1 X132.677 Y129.043 E35.3467
G1 X132.778 Y129.254 E35.35448
G1 X133.083 Y130.452 E35.39559
G1 X133.093 Y130.704 E35.40398
G1 X132.83 Y131.837 E35.44267
G1 X132.756 Y132.017 E35.44914
G1 X131.955 Y133.004 E35.49142
G1 X131.779 Y133.126 E35.49854
G1 F1111.1 X130.765 Y133.625 E35.53914
G1 F917.8 X130.62 Y133.731 E35.54695
G1 F2700 E30.54695
G0 F6000 X130.614 Y133.934
G0 X130.917 Y134.173
G0 X132.782 Y134.235
G0 X134.236 Y132.782
G0 X134.228 Y122.372
G0 X109.572 Y122.028
G0 X109.572 Y101.172
G0 X129.868 Y101.159
G0 X129.86 Y100.8
G0 X129.876 Y97.645
G0 X129.883 Y97.461
G1 F2700 E35.54695
G1 F1200 X128.749 Y97.191 E35.58572
G1 X128.521 Y97.083 E35.59411
G1 X127.587 Y96.362 E35.63335
G1 X126.978 Y95.224 E35.67628
G1 X126.882 Y93.915 E35.71994
G1 X127.344 Y92.67 E35.76411
G1 X128.215 Y91.783 E35.80545
G1 X128.627 Y91.548 E35.82123
G1 X129.675 Y91.273 E35.85727
G1 X129.916 Y91.26 E35.86529
G1 X130.909 Y91.407 E35.89868
G1 X131.136 Y91.489 E35.90671
G1 X132.021 Y92.035 E35.94129
G1 X132.167 Y92.181 E35.94816
G1 X132.801 Y93.081 E35.98478
G1 X133.011 Y93.751 E36.00813
G1 X133.036 Y94.846 E36.04456
G1 X132.702 Y95.79 E36.07786
G1 X132.596 Y95.975 E36.08496
G1 X132.022 Y96.659 E36.11466
G1 X131.857 Y96.796 E36.12179
G1 X131.084 Y97.232 E36.15131
G1 X130.893 Y97.301 E36.15806
G1 X129.883 Y97.461 E36.19207
G0 F6000 X129.86 Y97.558
G0 X128.73 Y97.082
G0 X128.799 Y96.792
;TYPE:WALL-OUTER
G1 F1200 X127.9 Y96.099 E36.22983
G1 X127.366 Y95.101 E36.26747
G1 X127.292 Y93.962 E36.30544
G1 X127.683 Y92.896 E36.3432
G1 X128.462 Y92.102 E36.3802
G1 X128.806 Y91.915 E36.39322
G1 X129.816 Y91.65 E36.42795
G1 X130.892 Y91.809 E36.46413
G1 X131.816 Y92.383 E36.50031
G1 X132.437 Y93.258 E36.53599
G1 X132.612 Y93.818 E36.55551
G1 X132.632 Y94.782 E36.58758
G1 X132.313 Y95.691 E36.61962
G1 X131.692 Y96.43 E36.65172
G1 X130.857 Y96.901 E36.68361
G1 X129.909 Y97.049 E36.71552
G1 X128.799 Y96.792 E36.75342
G1 F2700 E31.75342
G0 F6000 X128.73 Y97.082
G0 X129.876 Y97.645
G0 X129.876 Y100.8
G0 X109.381 Y101.157
G0 X109.505 Y122.179
G0 X109.905 Y122.356
G0 X129.573 Y122.438
G0 X129.413 Y134.025
G0 X129.598 Y133.273
G1 F2700 E36.75342
G1 F1200 X128.694 Y132.971 E36.78512
G1 X128.111 Y132.528 E36.80947
G1 X127.619 Y131.887 E36.83635
G1 X127.294 Y130.687 E36.8777
G1 X127.548 Y129.455 E36.91953
G1 X128.335 Y128.471 E36.96144
G1 X129.449 Y127.953 E37.0023
G1 X130.537 Y127.951 E37.03849
G1 X131.287 Y128.219 E37.06498
G1 X131.912 Y128.688 E37.09097
G1 X132.38 Y129.314 E37.11697
G1 X132.707 Y130.599 E37.16107
G1 X132.43 Y131.79 E37.20174
G1 X131.651 Y132.745 E37.24273
G1 X130.536 Y133.247 E37.2834
G1 X129.598 Y133.273 E37.31461
G1 F2700 E32.31461
G0 F6000 X129.413 Y134.025
G0 X132.055 Y134.238
G0 X132.782 Y134.235
G0 X134.236 Y132.782
G0 X134.228 Y122.372
G0 X109.572 Y122.028
G0 X109.223 Y114.581
G0 X96.48 Y113.739
G0 X95.074 Y114.086
G1 F2700 E37.31461
G1 F1200 X93.822 Y114.299 E37.35685
G1 X92.604 Y113.919 E37.39929
G1 X91.707 Y113.028 E37.44134
G1 X91.303 Y111.817 E37.4838
G1 X91.52 Y110.533 E37.52711
G1 X92.298 Y109.496 E37.57023
G1 X93.476 Y108.946 E37.61347
G1 X94.793 Y109.012 E37.65733
G1 X95.904 Y109.68 E37.70044
G1 X96.585 Y110.802 E37.7441
G1 X96.657 Y112.106 E37.78753
G1 X96.112 Y113.292 E37.83095
G1 X95.074 Y114.086 E37.87441
G1 F2700 E32.87441
G0 F6000 X95.161 Y114.578
G0 X93.901 Y114.873
G0 X85.801 Y114.873
G0 X85.201 Y134.799
G1 F2700 E37.87441
G1 F1200 X133.016 Y134.799 E39.46475
G1 X134.8 Y133.016 E39.54864
G1 X134.8 Y121.8 E39.92168
G1 X109.965 Y121.798 E40.7477
G1 X109.854 Y121.738 E40.75189
G1 X109.802 Y121.635 E40.75573
G1 X109.801 Y101.548 E41.42383
G1 X109.846 Y101.471 E41.4268
G1 X109.965 Y101.402 E41.43137
G1 X134.8 Y101.4 E42.25739
G1 X134.8 Y90.391 E42.62355
G1 X129.609 Y85.201 E42.86769
G1 X85.201 Y85.201 E44.34471
G1 X85.201 Y134.799 E45.99434
G1 F2700 E40.99434
G0 F6000 X85.47 Y134.53
G0 X128.436 Y134.239
G0 X129.709 Y134.073
G0 X129.011 Y133.716
G0 X128.88 Y133.939
;TYPE:SKIN
G1 F2700 E45.99434
G1 F1200 X128.417 Y134.039 E46.0101
G1 X85.962 Y134.038 E47.42216
G1 X85.961 Y85.961 E49.02121
G1 X129.293 Y85.962 E50.46243
G1 X134.04 Y90.707 E50.68567
G1 X134.04 Y92.938 E50.75987
