;FLAVOR:Marlin
;TIME:1221
;Filament used: 1.25915m
;Layer height: 0.28
;MINX:71.25
;MINY:58.405
;MINZ:0.28
;MAXX:148.65
;MAXY:161.595
;MAXZ:5.88
;Generated with Cura_SteamEngine 5.4.0
M140 S50
M105
M190 S50
M104 S200
M105
M109 S200
M82 ;absolute extrusion mode
M201 X500.00 Y500.00 Z100.00 E5000.00 ;Setup machine max acceleration
M203 X500.00 Y500.00 Z10.00 E50.00 ;Setup machine max feedrate
M204 P500.00 R1000.00 T500.00 ;Setup Print/Retract/Travel acceleration
M205 X8.00 Y8.00 Z0.40 E5.00 ;Setup Jerk
M220 S100 ;Reset Feedrate
M221 S100 ;Reset Flowrate

G28 ;Home

G92 E0 ;Reset Extruder
G1 Z2.0 F3000 ;Move Z Axis up
G1 X10.1 Y20 Z0.28 F5000.0 ;Move to start position
G1 X10.1 Y200.0 Z0.28 F1500.0 E15 ;Draw the first line
G1 X10.4 Y200.0 Z0.28 F5000.0 ;Move to side a little
G1 X10.4 Y20 Z0.28 F1500.0 E30 ;Draw the second line
G92 E0 ;Reset Extruder
G1 Z2.0 F3000 ;Move Z Axis up

G92 E0
G92 E0
G1 F2700 E-5
;LAYER_COUNT:21
;LAYER:0
M107
G0 F6000 X84.844 Y92.981 Z0.28
;TYPE:SKIRT
G1 F2700 E0
G1 F1200 X85.551 Y92.356 E0.04394
G1 X86.509 Y91.662 E0.09902
G1 X87.168 Y91.237 E0.13554
G1 X89.344 Y89.786 E0.25732
G1 X91.386 Y88.342 E0.37378
G1 X93.428 Y86.81 E0.49265
G1 X95.374 Y85.26 E0.60849
G1 X97.299 Y83.637 E0.72574
G1 X99.162 Y81.971 E0.84211
G1 X101.012 Y80.224 E0.96059
G1 X102.783 Y78.452 E1.07725
G1 X104.523 Y76.614 E1.1951
G1 X106.195 Y74.738 E1.31212
G1 X107.816 Y72.816 E1.42919
G1 X109.389 Y70.839 E1.54684
G1 X110.892 Y68.836 E1.66344
G1 X112.349 Y66.777 E1.78089
G1 X113.765 Y64.65 E1.89988
G1 X114.517 Y63.472 E1.96495
G1 X115.079 Y62.677 E2.01029
G1 X115.708 Y61.934 E2.05562
G1 X116.375 Y61.274 E2.09931
G1 X117.153 Y60.629 E2.14637
G1 X117.926 Y60.097 E2.19006
G1 X118.805 Y59.601 E2.23706
G1 X119.691 Y59.201 E2.28232
G1 X120.612 Y58.878 E2.32777
G1 X121.556 Y58.64 E2.3731
G1 X122.517 Y58.487 E2.41841
G1 X123.472 Y58.418 E2.463
G1 X124.079 Y58.405 E2.49127
G1 X134.375 Y58.405 E2.97069
G1 X135.255 Y58.418 E3.01168
G1 X136.227 Y58.477 E3.05702
G1 X137.19 Y58.623 E3.10237
G1 X138.137 Y58.854 E3.14776
G1 X139.025 Y59.154 E3.19141
G1 X139.917 Y59.544 E3.23674
G1 X140.8 Y60.031 E3.28369
G1 X141.551 Y60.533 E3.32576
G1 X142.366 Y61.191 E3.37453
G1 X143.064 Y61.869 E3.41984
G1 X143.7 Y62.606 E3.46517
G1 X144.27 Y63.396 E3.51053
G1 X144.732 Y64.172 E3.55259
G1 X145.186 Y65.114 E3.60128
G1 X145.515 Y65.992 E3.64494
G1 X145.784 Y66.964 E3.6919
G1 X145.961 Y67.93 E3.73763
G1 X146.056 Y69.06 E3.79043
G1 X146.071 Y69.835 E3.82653
G1 X146.05 Y72.168 E3.93516
G1 X146.05 Y80.703 E4.33259
G1 X146.087 Y83.289 E4.45302
G1 X146.196 Y85.854 E4.57256
G1 X146.37 Y88.317 E4.68754
G1 X146.619 Y90.834 E4.80531
G1 X146.94 Y93.342 E4.92305
G1 X147.326 Y95.803 E5.03904
G1 X147.781 Y98.248 E5.15484
G1 X148.164 Y99.991 E5.23794
G1 X148.416 Y101.209 E5.29586
G1 X148.569 Y102.173 E5.34131
G1 X148.638 Y103.212 E5.3898
G1 X148.65 Y103.957 E5.42449
G1 X148.649 Y149.995 E7.56821
G1 X148.638 Y150.758 E7.60374
G1 X148.581 Y151.731 E7.64913
G1 X148.436 Y152.694 E7.69448
G1 X148.207 Y153.64 E7.7398
G1 X147.896 Y154.564 E7.78519
G1 X147.504 Y155.455 E7.83052
G1 X147.036 Y156.307 E7.87579
G1 X146.514 Y157.088 E7.91953
G1 X145.881 Y157.873 E7.96648
G1 X145.256 Y158.524 E8.00851
G1 X144.467 Y159.212 E8.05725
G1 X143.707 Y159.762 E8.10093
G1 X142.84 Y160.279 E8.14794
G1 X141.962 Y160.701 E8.1933
G1 X141.051 Y161.043 E8.23861
G1 X140.112 Y161.304 E8.28399
G1 X139.146 Y161.482 E8.32973
G1 X137.995 Y161.58 E8.38352
G1 X137.32 Y161.595 E8.41496
G1 X82.814 Y161.594 E10.95298
G1 X82.081 Y161.583 E10.98712
G1 X81.109 Y161.526 E11.03246
G1 X80.146 Y161.38 E11.07781
G1 X79.2 Y161.151 E11.12313
G1 X78.276 Y160.839 E11.16855
G1 X77.386 Y160.447 E11.21383
G1 X76.563 Y159.996 E11.25753
G1 X75.724 Y159.435 E11.30452
G1 X75.02 Y158.869 E11.34659
G1 X74.267 Y158.144 E11.39526
G1 X73.63 Y157.408 E11.44058
G1 X73.1 Y156.677 E11.48263
G1 X72.564 Y155.78 E11.53128
G1 X72.142 Y154.902 E11.57665
G1 X71.8 Y153.99 E11.622
G1 X71.54 Y153.052 E11.66732
G1 X71.362 Y152.083 E11.7132
G1 X71.264 Y150.904 E11.76829
G1 X71.25 Y150.253 E11.79861
G1 X71.251 Y111.664 E13.59547
G1 X71.263 Y110.927 E13.6298
G1 X71.322 Y109.955 E13.67514
G1 X71.468 Y108.992 E13.72049
G1 X71.699 Y108.045 E13.76588
G1 X72.012 Y107.124 E13.81118
G1 X72.406 Y106.232 E13.85658
G1 X72.877 Y105.379 E13.90196
G1 X73.403 Y104.598 E13.9458
G1 X74.202 Y103.63 E14.00425
G1 X74.621 Y103.19 E14.03254
G1 X84.215 Y93.591 E14.66448
G1 X84.844 Y92.981 E14.70528
G0 F6000 X85.109 Y93.281
G1 F1200 X85.816 Y92.656 E14.74922
G1 X86.726 Y91.998 E14.80152
G1 X87.385 Y91.573 E14.83803
G1 X89.575 Y90.113 E14.96059
G1 X91.617 Y88.669 E15.07704
G1 X93.668 Y87.13 E15.19644
G1 X95.632 Y85.566 E15.31335
G1 X97.557 Y83.943 E15.43059
G1 X99.437 Y82.262 E15.54803
G1 X101.287 Y80.515 E15.66651
G1 X103.066 Y78.735 E15.78369
G1 X104.822 Y76.88 E15.90263
G1 X106.494 Y75.004 E16.01965
G1 X108.122 Y73.074 E16.13722
G1 X109.702 Y71.088 E16.25539
G1 X111.219 Y69.067 E16.37306
G1 X112.676 Y67.008 E16.49051
G1 X114.098 Y64.872 E16.60999
G1 X114.844 Y63.702 E16.67461
G1 X115.384 Y62.935 E16.71829
G1 X115.99 Y62.218 E16.762
G1 X116.631 Y61.582 E16.80405
G1 X117.38 Y60.959 E16.84941
G1 X118.153 Y60.427 E16.89311
G1 X118.97 Y59.965 E16.93681
G1 X119.824 Y59.578 E16.98047
G1 X120.71 Y59.266 E17.02421
G1 X121.62 Y59.035 E17.06792
G1 X122.546 Y58.886 E17.1116
G1 X123.481 Y58.818 E17.15525
G1 X124.088 Y58.805 E17.18352
G1 X134.369 Y58.805 E17.66225
G1 X135.231 Y58.817 E17.70239
G1 X136.168 Y58.873 E17.7461
G1 X137.096 Y59.012 E17.78979
G1 X138.009 Y59.233 E17.83353
G1 X138.865 Y59.521 E17.87559
G1 X139.757 Y59.911 E17.92092
G1 X140.578 Y60.364 E17.96458
G1 X141.329 Y60.866 E18.00664
G1 X142.088 Y61.478 E18.05204
G1 X142.762 Y62.131 E18.09574
G1 X143.376 Y62.84 E18.13941
G1 X143.926 Y63.601 E18.18314
G1 X144.388 Y64.377 E18.22519
G1 X144.811 Y65.254 E18.27053
G1 X145.14 Y66.132 E18.31419
G1 X145.391 Y67.037 E18.35792
G1 X145.562 Y67.964 E18.40181
G1 X145.657 Y69.094 E18.45461
G1 X145.671 Y69.831 E18.48894
G1 X145.65 Y72.164 E18.59758
G1 X145.65 Y80.703 E18.99519
G1 X145.687 Y83.306 E19.11641
G1 X145.796 Y85.871 E19.23595
G1 X145.972 Y88.356 E19.35195
G1 X146.222 Y90.885 E19.47029
G1 X146.543 Y93.393 E19.58803
G1 X146.933 Y95.876 E19.70506
G1 X147.39 Y98.334 E19.82148
G1 X147.772 Y100.072 E19.90434
G1 X148.021 Y101.272 E19.96141
G1 X148.17 Y102.2 E20.00517
G1 X148.238 Y103.219 E20.05272
G1 X148.25 Y103.957 E20.08709
G1 X148.249 Y149.99 E22.23058
G1 X148.239 Y150.735 E22.26528
G1 X148.185 Y151.672 E22.30898
G1 X148.047 Y152.601 E22.35271
G1 X147.828 Y153.513 E22.39639
G1 X147.53 Y154.403 E22.44009
G1 X147.153 Y155.263 E22.48381
G1 X146.703 Y156.085 E22.52745
G1 X146.181 Y156.866 E22.57119
G1 X145.592 Y157.596 E22.61487
G1 X144.967 Y158.247 E22.65689
G1 X144.232 Y158.888 E22.7023
G1 X143.472 Y159.438 E22.74599
G1 X142.666 Y159.919 E22.78969
G1 X141.821 Y160.327 E22.83338
G1 X140.943 Y160.658 E22.87708
G1 X140.039 Y160.911 E22.92079
G1 X139.112 Y161.083 E22.96469
G1 X137.961 Y161.181 E23.01848
G1 X137.32 Y161.195 E23.04833
G1 X82.82 Y161.194 E25.58608
G1 X82.104 Y161.184 E25.61943
G1 X81.168 Y161.13 E25.66308
G1 X80.239 Y160.991 E25.70682
G1 X79.327 Y160.772 E25.7505
G1 X78.437 Y160.473 E25.79421
G1 X77.578 Y160.096 E25.83789
G1 X76.755 Y159.645 E25.88159
G1 X75.975 Y159.123 E25.9253
G1 X75.271 Y158.557 E25.96736
G1 X74.569 Y157.882 E26.01271
G1 X73.954 Y157.173 E26.05641
G1 X73.424 Y156.442 E26.09845
G1 X72.924 Y155.606 E26.14381
G1 X72.516 Y154.761 E26.18751
G1 X72.185 Y153.883 E26.2312
G1 X71.933 Y152.979 E26.2749
G1 X71.761 Y152.05 E26.31889
G1 X71.663 Y150.871 E26.37398
G1 X71.65 Y150.253 E26.40276
G1 X71.651 Y111.67 E28.19935
G1 X71.662 Y110.951 E28.23283
G1 X71.718 Y110.014 E28.27654
G1 X71.857 Y109.086 E28.32023
G1 X72.078 Y108.173 E28.36397
G1 X72.378 Y107.285 E28.40762
G1 X72.756 Y106.425 E28.45136
G1 X73.209 Y105.602 E28.49511
G1 X73.712 Y104.852 E28.53716
G1 X74.492 Y103.906 E28.59425
G1 X74.904 Y103.473 E28.62208
G1 X84.494 Y93.878 E29.25376
G1 X85.109 Y93.281 E29.29367
G0 F6000 X85.375 Y93.58
G1 F1200 X86.051 Y92.98 E29.33576
G1 X86.943 Y92.334 E29.38704
G1 X87.602 Y91.909 E29.42356
G1 X89.806 Y90.44 E29.54689
G1 X91.848 Y88.996 E29.66335
G1 X93.908 Y87.45 E29.78328
G1 X95.89 Y85.872 E29.90125
G1 X97.815 Y84.249 E30.01849
G1 X99.712 Y82.553 E30.13698
G1 X101.562 Y80.806 E30.25546
G1 X103.349 Y79.018 E30.37317
G1 X105.112 Y77.154 E30.49264
G1 X106.8 Y75.262 E30.6107
G1 X108.428 Y73.332 E30.72828
G1 X110.015 Y71.337 E30.84698
G1 X111.546 Y69.298 E30.96571
G1 X113.003 Y67.239 E31.08316
G1 X114.431 Y65.094 E31.20315
G1 X115.171 Y63.932 E31.2673
G1 X115.69 Y63.193 E31.30935
G1 X116.272 Y62.502 E31.35142
G1 X116.913 Y61.866 E31.39346
G1 X117.607 Y61.288 E31.43552
G1 X118.35 Y60.775 E31.47756
G1 X119.136 Y60.329 E31.51964
G1 X119.957 Y59.955 E31.56165
G1 X120.809 Y59.654 E31.60373
G1 X121.684 Y59.43 E31.64578
G1 X122.575 Y59.285 E31.68782
G1 X123.49 Y59.218 E31.73054
G1 X124.097 Y59.205 E31.75881
G1 X134.364 Y59.205 E32.23688
G1 X135.208 Y59.216 E32.27619
G1 X136.11 Y59.269 E32.31826
G1 X137.003 Y59.401 E32.36029
G1 X137.881 Y59.612 E32.40234
G1 X138.737 Y59.9 E32.4444
G1 X139.564 Y60.262 E32.48643
G1 X140.356 Y60.697 E32.52851
G1 X141.107 Y61.199 E32.57057
G1 X141.81 Y61.766 E32.61263
G1 X142.46 Y62.393 E32.65468
G1 X143.052 Y63.075 E32.69673
G1 X143.582 Y63.806 E32.73877
G1 X144.044 Y64.582 E32.78083
G1 X144.437 Y65.395 E32.82287
G1 X144.755 Y66.24 E32.86492
G1 X144.998 Y67.11 E32.90698
G1 X145.163 Y67.998 E32.94903
G1 X145.258 Y69.128 E33.00184
G1 X145.271 Y69.827 E33.03439
G1 X145.25 Y72.16 E33.14303
G1 X145.25 Y80.703 E33.54083
G1 X145.287 Y83.323 E33.66284
G1 X145.396 Y85.888 E33.78238
G1 X145.574 Y88.395 E33.89941
G1 X145.825 Y90.936 E34.01831
G1 X146.146 Y93.444 E34.13604
G1 X146.54 Y95.949 E34.25412
G1 X146.999 Y98.42 E34.37115
G1 X147.38 Y100.154 E34.45382
G1 X147.626 Y101.336 E34.51004
G1 X147.771 Y102.227 E34.55207
G1 X147.838 Y103.226 E34.59869
G1 X147.85 Y103.957 E34.63274
G1 X147.849 Y149.985 E36.77599
G1 X147.84 Y150.712 E36.80985
G1 X147.789 Y151.614 E36.85191
G1 X147.658 Y152.508 E36.89399
G1 X147.449 Y153.386 E36.93601
G1 X147.163 Y154.243 E36.97808
G1 X146.802 Y155.071 E37.02014
G1 X146.37 Y155.863 E37.06215
G1 X145.869 Y156.615 E37.10423
G1 X145.303 Y157.319 E37.14629
G1 X144.678 Y157.97 E37.18831
G1 X143.997 Y158.564 E37.23039
G1 X143.266 Y159.095 E37.27246
G1 X142.492 Y159.559 E37.31448
G1 X141.679 Y159.953 E37.35655
G1 X140.835 Y160.273 E37.39858
G1 X139.965 Y160.518 E37.44067
G1 X139.078 Y160.684 E37.48268
G1 X137.927 Y160.782 E37.53647
G1 X137.32 Y160.795 E37.56474
G1 X82.825 Y160.794 E40.10226
G1 X82.127 Y160.785 E40.13476
G1 X81.226 Y160.734 E40.17679
G1 X80.332 Y160.602 E40.21887
G1 X79.454 Y160.393 E40.26089
G1 X78.597 Y160.106 E40.30298
G1 X77.77 Y159.745 E40.34499
G1 X76.977 Y159.312 E40.38706
G1 X76.226 Y158.811 E40.4291
G1 X75.522 Y158.245 E40.47116
G1 X74.871 Y157.619 E40.51322
G1 X74.278 Y156.938 E40.55527
G1 X73.748 Y156.207 E40.59731
G1 X73.284 Y155.432 E40.63937
G1 X72.89 Y154.619 E40.68144
G1 X72.57 Y153.775 E40.72347
G1 X72.326 Y152.905 E40.76554
G1 X72.16 Y152.017 E40.80761
G1 X72.063 Y150.862 E40.86158
G1 X72.05 Y150.253 E40.88994
G1 X72.051 Y111.676 E42.68625
G1 X72.061 Y110.974 E42.71894
G1 X72.114 Y110.072 E42.76101
G1 X72.246 Y109.179 E42.80305
G1 X72.457 Y108.301 E42.84509
G1 X72.745 Y107.445 E42.88715
G1 X73.107 Y106.617 E42.92923
G1 X73.541 Y105.825 E42.97128
G1 X74.044 Y105.075 E43.01333
G1 X74.782 Y104.182 E43.06727
G1 X75.187 Y103.756 E43.09464
G1 X84.773 Y94.165 E43.72606
G1 X85.375 Y93.58 E43.76515
G1 F2700 E38.76515
;MESH:model.stl
G0 F6000 X91.876 Y100.548
G0 X94.828 Y101.528
;TYPE:WALL-INNER
G1 F2700 E43.76515
G1 F1045.8 X94.961 Y101.521 E43.77227
G1 F872.7 X95.456 Y101.619 E43.80458
G1 F868 X95.849 Y101.522 E43.83063
G1 F1043.5 X96.094 Y101.526 E43.84376
G1 F2700 E38.84376
G0 F6000 X102.778 Y101.667
G0 X103.111 Y125.827
G0 X103.248 Y126.172
G0 X103.608 Y126.334
G0 X123.782 Y126.334
G0 X124.127 Y126.197
G0 X124.257 Y125.906
G0 X124.627 Y102.853
G0 X129.541 Y103.398
G0 X131.08 Y103.305
;TYPE:WALL-OUTER
G1 F2700 E43.84376
G1 F958.1 X131.324 Y103.197 E43.85932
G0 F6000 X130.876 Y103.487
G1 F909.1 X131.08 Y103.305 E43.87612
G1 X130.942 Y103.287 E43.88467
G1 F1045.8 X130.882 Y103.096 E43.89537
G1 F1297.3 X130.759 Y102.967 E43.90305
G1 F1240.3 X130.694 Y102.77 E43.91239
G1 F1200 X130.931 Y102.514 E43.92864
G1 X131.216 Y102.374 E43.94342
G1 F1111.1 X131.434 Y102.45 E43.95504
G1 F874.3 X131.646 Y102.651 E43.97371
G1 X131.632 Y102.351 E43.9929
G1 F1111.1 X131.701 Y102.123 E44.00488
G1 F1200 X132.05 Y101.972 E44.02259
G1 X132.378 Y101.963 E44.03786
G1 X132.48 Y102.022 E44.04335
G1 X132.532 Y102.112 E44.04819
G1 F1106 X132.589 Y102.616 E44.07382
G1 F840.6 X132.472 Y102.785 E44.08748
G1 F792.1 X132.672 Y102.826 E44.10188
G1 F1008.4 X132.756 Y102.89 E44.10773
G1 F1167.9 X133.965 Y103.179 E44.16721
G1 F1191.1 X134.963 Y104.005 E44.22798
G1 F1200 X135.496 Y105.165 E44.28743
G1 X135.514 Y106.194 E44.33535
G1 X135.198 Y107.123 E44.38104
G1 X134.702 Y107.775 E44.41919
G1 X134.051 Y108.262 E44.45704
G1 X132.783 Y108.602 E44.51817
G1 X131.49 Y108.337 E44.57963
G1 X130.449 Y107.506 E44.64166
G1 X129.903 Y106.328 E44.70211
G1 X129.907 Y105.19 E44.7551
G1 X130.023 Y104.766 E44.77557
G1 X130.199 Y104.378 E44.79541
G1 X130.423 Y104.074 E44.81299
G1 X130.261 Y104.082 E44.82055
G1 X130.121 Y104.036 E44.82741
G1 X130.05 Y103.903 E44.83443
G1 X130.101 Y103.579 E44.8497
G1 X130.252 Y103.285 E44.86509
G1 X130.342 Y103.217 E44.87034
G1 F1240.3 X130.517 Y103.248 E44.87835
G1 F1297.3 X130.619 Y103.349 E44.88453
G1 F1045.8 X130.834 Y103.426 E44.89674
G1 F869.6 X130.876 Y103.487 E44.9015
G1 F2700 E39.9015
G0 F6000 X130.4 Y102.854
G0 X131.287 Y104.362
G0 X132.762 Y107.717
G0 X132.804 Y109.014
;TYPE:WALL-INNER
G1 F2700 E44.9015
G1 F1200 X131.407 Y108.731 E44.96787
G1 X131.262 Y108.667 E44.97525
G1 X130.13 Y107.77 E45.0425
G1 X129.501 Y106.412 E45.11219
G1 X129.501 Y105.158 E45.17058
G1 X129.644 Y104.638 E45.19569
G1 X129.811 Y104.266 E45.21468
G1 X129.686 Y104.089 E45.22477
G1 X129.652 Y103.943 E45.23175
G1 X129.712 Y103.462 E45.25432
G1 X129.906 Y103.075 E45.27448
G1 X130.2 Y102.843 E45.29192
G1 X130.35 Y102.86 E45.29895
G1 X130.312 Y102.714 E45.30597
G1 X130.408 Y102.494 E45.31715
G1 X130.66 Y102.21 E45.33483
G1 X131.01 Y102.028 E45.3532
G1 X131.232 Y101.982 E45.36375
G1 X131.352 Y102.043 E45.37002
G1 X131.374 Y101.91 E45.3763
G1 X131.547 Y101.757 E45.38705
G1 X131.922 Y101.587 E45.40623
G1 X132.438 Y101.558 E45.43029
G1 X132.68 Y101.67 E45.44271
G1 X132.841 Y101.836 E45.45348
G1 X132.924 Y102 E45.46203
G1 X132.967 Y102.399 E45.48072
G1 X132.951 Y102.532 E45.48696
G1 X134.008 Y102.778 E45.53749
G1 X134.252 Y102.897 E45.55013
G1 X135.287 Y103.747 E45.6125
G1 X135.843 Y104.961 E45.67467
G1 X135.897 Y105.198 E45.68599
G1 X135.918 Y106.255 E45.73522
G1 X135.555 Y107.313 E45.7873
G1 X134.986 Y108.063 E45.83114
G1 X134.322 Y108.559 E45.86973
G1 X134.119 Y108.658 E45.88025
G1 X132.804 Y109.014 E45.94368
G1 F2700 E40.94368
G0 F6000 X136.85 Y109.014
G0 X137.05 Y149.995
G1 F2700 E45.94368
G1 F1200 X137.05 Y103.657 E48.10138
G1 X134.574 Y101.182 E48.26439
G1 X134.45 Y100.827 E48.2819
G1 X134.45 Y70.631 E49.68795
G1 X134.471 Y70.483 E49.69491
G1 X134.471 Y70.005 E49.71717
G1 X124.367 Y70.005 E50.18766
G1 X124.367 Y70.261 E50.19958
G1 X124.387 Y70.279 E50.20083
G1 X124.45 Y70.548 E50.21369
G1 X124.447 Y125.883 E52.79032
G1 X124.279 Y126.233 E52.8084
G1 X124.091 Y126.378 E52.81946
G1 X123.812 Y126.494 E52.83353
G1 X103.546 Y126.492 E53.7772
G1 X103.22 Y126.316 E53.79445
G1 X103.109 Y126.201 E53.80189
G1 X102.955 Y125.892 E53.81797
G1 X102.95 Y101.495 E54.95399
G1 F1194 X96.463 Y101.497 E55.25756
G1 F1108.5 X96.094 Y101.526 E55.27622
G1 X96.449 Y101.633 E55.29491
G1 F1194 X96.933 Y102.163 E55.3285
G1 F1200 X96.85 Y102.561 E55.34743
G1 X97.188 Y102.571 E55.36318
G1 X97.429 Y102.685 E55.37559
G1 X97.455 Y102.731 E55.37805
G1 X97.964 Y102.91 E55.40317
G1 X98.149 Y103.016 E55.4131
G1 X98.876 Y103.623 E55.4572
